client/img/icon/social/instagram.svg

<?xml version="1.0" encoding="UTF-8"?>
<svg width="32px" height="32px" viewBox="0 0 32 32" version="1.1" xmlns="http://www.w3.org/2000/svg" xmlns:xlink="http://www.w3.org/1999/xlink">
    <!-- Generator: sketchtool 47 (45396) - http://www.bohemiancoding.com/sketch -->
    <title>icon/social/instagram</title>
    <desc>Created with sketchtool.</desc>
    <defs>
        <path d="M16,8.62225 C18.403,8.62225 18.688,8.63125 19.6375,8.67475 C22.0765,8.78575 23.21575,9.943 23.32675,12.364 C23.37025,13.31275 23.3785,13.59775 23.3785,16.00075 C23.3785,18.4045 23.3695,18.68875 23.32675,19.6375 C23.215,22.05625 22.07875,23.21575 19.6375,23.32675 C18.688,23.37025 18.4045,23.37925 16,23.37925 C13.597,23.37925 13.312,23.37025 12.36325,23.32675 C9.91825,23.215 8.785,22.0525 8.674,19.63675 C8.6305,18.688 8.6215,18.40375 8.6215,16 C8.6215,13.597 8.63125,13.31275 8.674,12.36325 C8.78575,9.943 9.922,8.785 12.36325,8.674 C13.31275,8.63125 13.597,8.62225 16,8.62225 L16,8.62225 Z M16,7 C13.55575,7 13.24975,7.0105 12.28975,7.054 C9.02125,7.204 7.20475,9.0175 7.05475,12.289 C7.0105,13.24975 7,13.55575 7,16 C7,18.44425 7.0105,18.751 7.054,19.711 C7.204,22.9795 9.0175,24.796 12.289,24.946 C13.24975,24.9895 13.55575,25 16,25 C18.44425,25 18.751,24.9895 19.711,24.946 C22.9765,24.796 24.7975,22.9825 24.94525,19.711 C24.9895,18.751 25,18.44425 25,16 C25,13.55575 24.9895,13.24975 24.946,12.28975 C24.799,9.02425 22.98325,7.20475 19.71175,7.05475 C18.751,7.0105 18.44425,7 16,7 L16,7 Z M16,11.3785 C13.44775,11.3785 11.3785,13.44775 11.3785,16 C11.3785,18.55225 13.44775,20.62225 16,20.62225 C18.55225,20.62225 20.6215,18.553 20.6215,16 C20.6215,13.44775 18.55225,11.3785 16,11.3785 Z M16,19 C14.34325,19 13,17.6575 13,16 C13,14.34325 14.34325,13 16,13 C17.65675,13 19,14.34325 19,16 C19,17.6575 17.65675,19 16,19 Z M20.8045,10.11625 C20.2075,10.11625 19.72375,10.6 19.72375,11.19625 C19.72375,11.7925 20.2075,12.27625 20.8045,12.27625 C21.40075,12.27625 21.88375,11.7925 21.88375,11.19625 C21.88375,10.6 21.40075,10.11625 20.8045,10.11625 Z" id="path-1"></path>
    </defs>
    <g id="Symbols" stroke="none" stroke-width="1" fill="none" fill-rule="evenodd">
        <g id="icon/social/instagram">
            <mask id="mask-2" fill="white">
                <use xlink:href="#path-1"></use>
            </mask>
            <use id="instagram" fill="#000000" fill-rule="nonzero" xlink:href="#path-1"></use>
            <g id="color/solid/primary" mask="url(#mask-2)" fill="#4A90E2">
                <g transform="translate(-24.000000, -24.000000)" id="color">
                    <rect x="0" y="0" width="80" height="80"></rect>
                </g>
            </g>
        </g>
    </g>
</svg>

<?xml version="1.0" encoding="utf-8"?>
<!-- Generator: Adobe Illustrator 23.0.0, SVG Export Plug-In . SVG Version: 6.00 Build 0)  -->
<svg version="1.1" id="Layer_1" xmlns="http://www.w3.org/2000/svg" xmlns:xlink="http://www.w3.org/1999/xlink" x="0px" y="0px"
	 viewBox="0 0 32 32" style="enable-background:new 0 0 32 32;" xml:space="preserve">
<g>
	<path d="M16,8.6c2.4,0,2.7,0,3.6,0.1c2.4,0.1,3.6,1.3,3.7,3.7c0,0.9,0.1,1.2,0.1,3.6c0,2.4,0,2.7-0.1,3.6c-0.1,2.4-1.2,3.6-3.7,3.7
		c-0.9,0-1.2,0.1-3.6,0.1c-2.4,0-2.7,0-3.6-0.1c-2.4-0.1-3.6-1.3-3.7-3.7c0-0.9-0.1-1.2-0.1-3.6c0-2.4,0-2.7,0.1-3.6
		c0.1-2.4,1.2-3.6,3.7-3.7C13.3,8.6,13.6,8.6,16,8.6L16,8.6z M16,7c-2.4,0-2.8,0-3.7,0.1C9,7.2,7.2,9,7.1,12.3C7,13.2,7,13.6,7,16
		s0,2.8,0.1,3.7c0.2,3.3,2,5.1,5.2,5.2c1,0,1.3,0.1,3.7,0.1s2.8,0,3.7-0.1c3.3-0.1,5.1-2,5.2-5.2c0-1,0.1-1.3,0.1-3.7s0-2.8-0.1-3.7
		c-0.1-3.3-2-5.1-5.2-5.2C18.8,7,18.4,7,16,7L16,7z M16,11.4c-2.6,0-4.6,2.1-4.6,4.6s2.1,4.6,4.6,4.6s4.6-2.1,4.6-4.6
		C20.6,13.4,18.6,11.4,16,11.4z M16,19c-1.7,0-3-1.3-3-3c0-1.7,1.3-3,3-3s3,1.3,3,3C19,17.7,17.7,19,16,19z M20.8,10.1
		c-0.6,0-1.1,0.5-1.1,1.1s0.5,1.1,1.1,1.1c0.6,0,1.1-0.5,1.1-1.1S21.4,10.1,20.8,10.1z"/>
</g>
</svg>
